src/images/plan-open-source.svg

<svg xmlns="http://www.w3.org/2000/svg" width="255" height="253" fill="none" viewBox="0 0 255 253"><path fill="#F7A501" fill-rule="evenodd" d="M8.00067 0.0114746H246.86C248.975 0.0216349 251.001 0.869083 252.493 2.36847C253.985 3.86785 254.822 5.89714 254.822 8.0125V244.085C254.822 246.205 253.98 248.238 252.481 249.737C250.982 251.236 248.949 252.078 246.829 252.078H8.00067C5.88009 252.078 3.84625 251.236 2.34606 249.738C0.845861 248.239 0.00203706 246.206 0 244.085V8.0125C0 5.8905 0.84292 3.8554 2.34334 2.35492C3.84375 0.854438 5.87876 0.0114746 8.00067 0.0114746Z" clip-rule="evenodd"/><path fill="#35416B" d="M252.512 248.162C254.011 246.663 254.853 244.629 254.853 242.51V124.473H0V242.51C0.00203706 244.63 0.845814 246.663 2.34601 248.162C3.84621 249.661 5.88002 250.503 8.0006 250.503H246.86C248.98 250.503 251.013 249.661 252.512 248.162Z"/><g clip-path="url(#clip0)"><path fill="#FF9878" fill-rule="evenodd" d="M78.0647 65.4904L136.023 82.4741V208.937L78.0647 191.954V65.4904Z" clip-rule="evenodd"/><path fill="#F96132" fill-rule="evenodd" d="M135.965 82.4991L172.348 52.4761V178.879L135.965 208.904V82.4991Z" clip-rule="evenodd"/><path fill="#FFC3B0" fill-rule="evenodd" d="M78.1133 65.522L135.997 82.535L172.38 52.5203L117.007 39.0651L78.1133 65.522Z" clip-rule="evenodd"/><path fill-rule="evenodd" stroke="#fff" stroke-linecap="round" stroke-linejoin="round" stroke-width="1.079" d="M143.632 116.425L167.194 98.2098C167.86 97.6956 168.397 97.959 168.397 98.7993V114.121C168.371 114.59 168.251 115.049 168.045 115.47C167.838 115.891 167.549 116.266 167.194 116.573L143.632 134.788C142.968 135.302 142.429 135.039 142.429 134.199V118.879C142.455 118.41 142.575 117.951 142.781 117.529C142.988 117.108 143.277 116.732 143.632 116.425V116.425Z" clip-rule="evenodd"/><path fill="#3541D1" fill-rule="evenodd" d="M144.645 117.928L146.339 116.582C146.548 116.421 146.707 116.5 146.707 116.759V129.842C146.699 129.987 146.662 130.129 146.599 130.26C146.536 130.39 146.447 130.507 146.339 130.603L144.645 131.952C144.436 132.112 144.28 132.033 144.28 131.774V118.678C144.298 118.39 144.429 118.12 144.645 117.928Z" clip-rule="evenodd"/><path fill="#fff" fill-rule="evenodd" d="M148.455 121.199L150.149 119.853C150.357 119.692 150.516 119.771 150.518 120.03L150.56 127.029C150.553 127.174 150.517 127.315 150.454 127.446C150.391 127.577 150.303 127.694 150.195 127.79L148.501 129.136C148.292 129.299 148.133 129.219 148.131 128.96L148.089 121.96C148.097 121.815 148.133 121.673 148.196 121.543C148.259 121.412 148.347 121.295 148.455 121.199Z" clip-rule="evenodd"/><path fill="#F7A501" fill-rule="evenodd" d="M152.302 115.678L154 114.328C154.209 114.167 154.365 114.504 154.365 114.504L154.526 123.816C154.518 123.96 154.482 124.1 154.42 124.23C154.358 124.359 154.27 124.475 154.163 124.571L152.463 125.921C152.254 126.082 152.099 126.002 152.099 125.745L151.936 116.433C151.936 116.176 152.302 115.678 152.302 115.678Z" clip-rule="evenodd"/><path fill="#3541D1" fill-rule="evenodd" d="M156.157 115.91L157.851 114.564C158.06 114.403 158.219 114.742 158.219 114.742L158.263 120.561C158.255 120.706 158.219 120.847 158.156 120.977C158.093 121.108 158.005 121.224 157.897 121.32L156.203 122.668C155.995 122.829 155.836 122.75 155.836 122.491L155.792 116.671C155.792 116.412 156.157 115.91 156.157 115.91Z" clip-rule="evenodd"/><path fill="#F7A501" fill-rule="evenodd" d="M160.101 109.37L161.795 108.024C162.004 107.863 162.16 108.201 162.16 108.201L162.204 117.679C162.196 117.824 162.159 117.965 162.096 118.096C162.033 118.227 161.945 118.343 161.836 118.44L160.143 119.786C159.934 119.947 159.777 119.867 159.777 119.608L159.733 110.131C159.733 109.872 160.101 109.37 160.101 109.37Z" clip-rule="evenodd"/><path fill="#fff" fill-rule="evenodd" d="M164.146 102.779L165.84 101.433C166.049 101.272 166.208 101.352 166.208 101.611V114.711C166.2 114.856 166.163 114.997 166.1 115.128C166.037 115.258 165.949 115.375 165.84 115.472L164.146 116.818C163.938 116.979 163.781 116.899 163.781 116.64V103.54C163.789 103.395 163.825 103.254 163.888 103.123C163.95 102.993 164.038 102.876 164.146 102.779Z" clip-rule="evenodd"/><path fill="#fff" fill-rule="evenodd" d="M87.4133 75.6868L126.506 86.4498C127.052 86.6236 127.531 86.9613 127.878 87.4172C128.226 87.8731 128.425 88.425 128.448 88.9979V104.314C128.448 105.428 127.577 106.09 126.506 105.793L87.4133 95.0305C86.8676 94.8566 86.3886 94.5188 86.0414 94.0629C85.6943 93.607 85.4958 93.0551 85.473 92.4824V77.1668C85.473 76.0526 86.344 75.39 87.4133 75.6868Z" clip-rule="evenodd"/><path fill="#fff" fill-rule="evenodd" d="M87.2253 100.102L126.318 110.864C126.864 111.039 127.343 111.377 127.691 111.833C128.038 112.289 128.237 112.841 128.26 113.415V128.73C128.26 129.842 127.391 130.505 126.318 130.21L87.2253 119.447C86.6794 119.273 86.2004 118.935 85.8532 118.479C85.5061 118.022 85.3077 117.47 85.285 116.897V101.581C85.285 100.469 86.1539 99.8068 87.2253 100.102Z" clip-rule="evenodd"/><path fill="#fff" fill-rule="evenodd" d="M86.8494 123.572L125.944 134.343C126.49 134.517 126.969 134.855 127.316 135.31C127.663 135.766 127.861 136.318 127.884 136.891V152.209C127.884 153.323 127.015 153.983 125.944 153.689L86.8494 142.924C86.3036 142.75 85.8246 142.412 85.4775 141.956C85.1303 141.5 84.9318 140.948 84.9091 140.375V125.06C84.9091 123.946 85.7779 123.283 86.8494 123.572Z" clip-rule="evenodd"/><path fill="#fff" fill-rule="evenodd" d="M87.0373 147.244L126.13 158.007C126.676 158.18 127.156 158.518 127.503 158.974C127.851 159.43 128.049 159.982 128.072 160.555V175.871C128.072 176.985 127.203 177.648 126.13 177.351L87.0373 166.588C86.4904 166.415 86.01 166.078 85.6616 165.622C85.3133 165.166 85.1139 164.613 85.0907 164.04V148.724C85.0907 147.61 85.9658 146.949 87.0373 147.244Z" clip-rule="evenodd"/><path fill="#fff" fill-rule="evenodd" d="M86.8494 169.976L125.944 180.733C126.49 180.907 126.969 181.244 127.316 181.7C127.663 182.156 127.861 182.708 127.884 183.281V198.596C127.884 199.711 127.015 200.373 125.944 200.078L86.8494 189.313C86.3036 189.14 85.8246 188.802 85.4775 188.346C85.1303 187.89 84.9318 187.338 84.9091 186.765V171.45C84.9091 170.336 85.7779 169.673 86.8494 169.976Z" clip-rule="evenodd"/><path fill="#F96132" fill-rule="evenodd" d="M91.8851 88.9728C91.446 88.9251 91.0311 88.7475 90.6935 88.4626C90.3558 88.1777 90.1107 87.7985 89.9895 87.3735C89.8683 86.9484 89.8766 86.4969 90.0131 86.0766C90.1497 85.6562 90.4084 85.2862 90.7562 85.0139C91.104 84.7415 91.5251 84.5791 91.9656 84.5474C92.4061 84.5158 92.846 84.6164 93.2291 84.8363C93.6122 85.0562 93.9211 85.3855 94.1162 85.782C94.3113 86.1785 94.3839 86.6242 94.3245 87.0622C94.254 87.6393 93.9575 88.1647 93.5 88.523C93.0425 88.8812 92.4617 89.043 91.8851 88.9728Z" clip-rule="evenodd"/><path fill="#F7A501" fill-rule="evenodd" d="M90.6006 112.953C90.1615 112.905 89.7465 112.727 89.4089 112.442C89.0712 112.157 88.8262 111.778 88.7051 111.353C88.5841 110.927 88.5925 110.476 88.7292 110.056C88.866 109.635 89.125 109.265 89.473 108.993C89.821 108.721 90.2422 108.559 90.6828 108.527C91.1234 108.496 91.5634 108.597 91.9464 108.817C92.3294 109.037 92.638 109.367 92.8328 109.764C93.0277 110.16 93.0998 110.606 93.0401 111.044C93.0052 111.33 92.9144 111.606 92.7729 111.856C92.6314 112.107 92.442 112.327 92.2154 112.504C91.9889 112.681 91.7297 112.812 91.4526 112.889C91.1755 112.966 90.886 112.988 90.6006 112.953Z" clip-rule="evenodd"/><path fill="#3541D1" fill-rule="evenodd" d="M90.3791 136.397C89.94 136.35 89.5251 136.172 89.1875 135.887C88.8498 135.602 88.6047 135.223 88.4835 134.798C88.3624 134.373 88.3706 133.922 88.5072 133.501C88.6437 133.081 88.9025 132.711 89.2503 132.439C89.5981 132.166 90.0191 132.004 90.4596 131.972C90.9001 131.941 91.3401 132.041 91.7232 132.261C92.1062 132.481 92.4151 132.81 92.6102 133.207C92.8054 133.603 92.8779 134.049 92.8186 134.487C92.7839 134.773 92.6933 135.049 92.5519 135.3C92.4105 135.55 92.2211 135.771 91.9946 135.948C91.768 136.126 91.5087 136.257 91.2315 136.334C90.9543 136.411 90.6646 136.433 90.3791 136.397Z" clip-rule="evenodd"/><path fill="#F96132" fill-rule="evenodd" d="M89.7818 159.943C89.3426 159.895 88.9274 159.718 88.5895 159.433C88.2515 159.149 88.0061 158.77 87.8846 158.345C87.7631 157.92 87.771 157.468 87.9074 157.047C88.0438 156.627 88.3024 156.257 88.6502 155.984C88.9979 155.712 89.419 155.549 89.8596 155.517C90.3002 155.485 90.7403 155.586 91.1235 155.806C91.5067 156.026 91.8156 156.355 92.0108 156.752C92.206 157.148 92.2785 157.594 92.2192 158.032C92.1486 158.609 91.8524 159.134 91.3954 159.492C90.9384 159.85 90.3581 160.012 89.7818 159.943Z" clip-rule="evenodd"/><path fill="#F7A501" fill-rule="evenodd" d="M89.5499 182.781C89.1104 182.735 88.6948 182.558 88.3562 182.274C88.0177 181.99 87.7716 181.611 87.6494 181.186C87.5273 180.761 87.5347 180.309 87.6707 179.888C87.8067 179.467 88.0651 179.096 88.4128 178.823C88.7605 178.55 89.1816 178.387 89.6224 178.355C90.0632 178.323 90.5035 178.424 90.8869 178.644C91.2704 178.864 91.5795 179.193 91.7748 179.59C91.9701 179.986 92.0426 180.432 91.9831 180.871C91.9126 181.447 91.6169 181.971 91.1609 182.329C90.7048 182.687 90.1255 182.85 89.5499 182.781Z" clip-rule="evenodd"/><path fill="#3541D1" fill-rule="evenodd" d="M98.7544 90.7538C98.3154 90.7061 97.9005 90.5285 97.5628 90.2436C97.2252 89.9587 96.9801 89.5795 96.8589 89.1545C96.7377 88.7294 96.7459 88.2779 96.8825 87.8576C97.0191 87.4373 97.2778 87.0672 97.6256 86.7949C97.9734 86.5225 98.3945 86.3601 98.835 86.3285C99.2755 86.2968 99.7154 86.3974 100.099 86.6173C100.482 86.8372 100.79 87.1665 100.986 87.563C101.181 87.9595 101.253 88.4053 101.194 88.8432C101.123 89.4203 100.827 89.9457 100.369 90.304C99.9119 90.6622 99.331 90.824 98.7544 90.7538Z" clip-rule="evenodd"/><path fill="#F96132" fill-rule="evenodd" d="M97.472 114.729C97.0334 114.68 96.6195 114.501 96.2831 114.215C95.9466 113.929 95.703 113.55 95.5831 113.125C95.4633 112.699 95.4728 112.248 95.6104 111.829C95.748 111.409 96.0074 111.04 96.3555 110.768C96.7037 110.497 97.1248 110.336 97.565 110.305C98.0052 110.274 98.4447 110.375 98.8272 110.595C99.2097 110.816 99.518 111.145 99.7126 111.541C99.9072 111.938 99.9794 112.383 99.9198 112.821C99.8847 113.107 99.7935 113.384 99.6514 113.635C99.5093 113.886 99.319 114.106 99.0917 114.284C98.8643 114.461 98.6041 114.592 98.3262 114.668C98.0483 114.745 97.758 114.765 97.472 114.729Z" clip-rule="evenodd"/><path fill="#F7A501" fill-rule="evenodd" d="M97.2486 138.174C96.8095 138.127 96.3946 137.949 96.057 137.664C95.7193 137.379 95.4742 137 95.353 136.575C95.2319 136.15 95.2401 135.698 95.3767 135.278C95.5132 134.858 95.772 134.488 96.1198 134.215C96.4676 133.943 96.8886 133.78 97.3291 133.749C97.7697 133.717 98.2096 133.818 98.5927 134.038C98.9758 134.258 99.2846 134.587 99.4797 134.983C99.6749 135.38 99.7474 135.826 99.6881 136.264C99.6176 136.841 99.321 137.366 98.8635 137.724C98.4061 138.083 97.8252 138.244 97.2486 138.174Z" clip-rule="evenodd"/><path fill="#F7A501" fill-rule="evenodd" d="M96.6511 161.728C96.2116 161.681 95.796 161.505 95.4574 161.22C95.1189 160.936 94.8728 160.557 94.7506 160.132C94.6285 159.707 94.6359 159.255 94.7719 158.834C94.9079 158.414 95.1663 158.043 95.514 157.77C95.8616 157.497 96.2828 157.334 96.7236 157.302C97.1644 157.27 97.6047 157.37 97.9881 157.59C98.3715 157.81 98.6807 158.139 98.876 158.536C99.0713 158.933 99.1438 159.379 99.0843 159.817C99.0143 160.393 98.7188 160.918 98.2626 161.276C97.8064 161.634 97.2268 161.797 96.6511 161.728Z" clip-rule="evenodd"/><path fill="#F96132" fill-rule="evenodd" d="M96.4214 184.558C95.9822 184.511 95.5671 184.334 95.2291 184.049C94.8912 183.764 94.6457 183.385 94.5242 182.96C94.4027 182.535 94.4107 182.083 94.5471 181.663C94.6834 181.242 94.942 180.872 95.2898 180.599C95.6376 180.327 96.0587 180.164 96.4993 180.133C96.9399 180.101 97.3799 180.201 97.7631 180.421C98.1463 180.641 98.4553 180.97 98.6505 181.367C98.8457 181.764 98.9182 182.209 98.8588 182.648C98.7883 183.224 98.492 183.749 98.035 184.107C97.578 184.466 96.9977 184.628 96.4214 184.558Z" clip-rule="evenodd"/><path fill="#F96132" fill-rule="evenodd" d="M103.065 90.0534C103.2 89.5691 103.522 89.1583 103.959 88.911C104.396 88.6637 104.914 88.6002 105.398 88.7344L124.908 94.1692C125.392 94.3012 125.804 94.6203 126.053 95.0561C126.302 95.492 126.368 96.0091 126.236 96.4936C126.17 96.7337 126.057 96.9584 125.904 97.1548C125.75 97.3512 125.56 97.5154 125.343 97.6381C125.127 97.7608 124.888 97.8395 124.641 97.8698C124.394 97.9001 124.143 97.8814 123.903 97.8147L104.396 92.3799C103.911 92.2479 103.499 91.9286 103.249 91.4923C103 91.0561 102.933 90.5385 103.065 90.0534Z" clip-rule="evenodd"/><path fill="#3541D1" fill-rule="evenodd" d="M101.781 114.035C101.916 113.551 102.237 113.14 102.675 112.893C103.112 112.646 103.63 112.582 104.114 112.716L123.623 118.137C123.863 118.203 124.087 118.317 124.283 118.47C124.479 118.623 124.643 118.814 124.766 119.031C124.888 119.248 124.966 119.486 124.997 119.734C125.027 119.981 125.008 120.232 124.941 120.472C124.875 120.712 124.762 120.936 124.609 121.133C124.455 121.329 124.265 121.493 124.048 121.615C123.831 121.738 123.593 121.816 123.346 121.847C123.099 121.877 122.848 121.858 122.608 121.79L103.101 116.366C102.617 116.231 102.207 115.911 101.96 115.474C101.712 115.037 101.648 114.52 101.781 114.035Z" clip-rule="evenodd"/><path fill="#F7A501" fill-rule="evenodd" d="M101.559 137.478C101.694 136.995 102.015 136.585 102.452 136.338C102.888 136.09 103.405 136.026 103.888 136.159L123.398 141.594C123.638 141.661 123.862 141.774 124.058 141.927C124.254 142.081 124.418 142.271 124.54 142.488C124.662 142.705 124.741 142.944 124.771 143.191C124.801 143.438 124.782 143.689 124.716 143.929C124.581 144.413 124.259 144.824 123.822 145.071C123.384 145.319 122.867 145.382 122.383 145.248L102.873 139.813C102.39 139.677 101.98 139.355 101.734 138.917C101.488 138.48 101.425 137.962 101.559 137.478Z" clip-rule="evenodd"/><path fill="#F96132" fill-rule="evenodd" d="M100.964 161.032C101.099 160.547 101.421 160.137 101.858 159.889C102.295 159.642 102.813 159.578 103.297 159.713L122.807 165.147C123.287 165.283 123.694 165.603 123.941 166.037C124.187 166.472 124.252 166.985 124.122 167.468C123.987 167.952 123.665 168.362 123.228 168.609C122.791 168.857 122.274 168.92 121.79 168.787L102.28 163.352C101.799 163.217 101.392 162.897 101.145 162.463C100.899 162.028 100.834 161.514 100.964 161.032Z" clip-rule="evenodd"/><path fill="#3541D1" fill-rule="evenodd" d="M100.732 183.862C100.867 183.378 101.188 182.967 101.625 182.72C102.062 182.472 102.579 182.409 103.063 182.543L122.573 187.978C122.812 188.044 123.037 188.158 123.233 188.311C123.429 188.465 123.593 188.655 123.715 188.872C123.837 189.089 123.916 189.328 123.946 189.575C123.976 189.822 123.957 190.073 123.891 190.313C123.824 190.553 123.711 190.777 123.557 190.973C123.404 191.169 123.214 191.333 122.997 191.456C122.78 191.578 122.542 191.657 122.295 191.687C122.048 191.717 121.797 191.698 121.558 191.632L102.05 186.197C101.81 186.13 101.586 186.017 101.39 185.864C101.193 185.711 101.029 185.52 100.907 185.303C100.785 185.086 100.706 184.847 100.676 184.6C100.646 184.353 100.665 184.102 100.732 183.862Z" clip-rule="evenodd"/></g><defs><clipPath id="clip0"><rect width="94.444" height="170" fill="#fff" transform="translate(78 39)"/></clipPath></defs></svg>

<svg fill="none" viewBox="0 0 255 253"><path fill="#F7A501" fill-rule="evenodd" d="M8 .011h238.86a8.002 8.002 0 017.962 8.002v236.072a7.993 7.993 0 01-7.993 7.993H8.001A8.003 8.003 0 010 244.085V8.012a8.001 8.001 0 018-8z" clip-rule="evenodd"/><path fill="#35416B" d="M252.512 248.162a7.995 7.995 0 002.341-5.652V124.473H0V242.51a8.001 8.001 0 008 7.993h238.86c2.12 0 4.153-.842 5.652-2.341z"/><g fill-rule="evenodd" clip-path="url(#clip0)" clip-rule="evenodd"><path fill="#FF9878" d="M78.065 65.49l57.958 16.984v126.463l-57.958-16.983V65.49z"/><path fill="#F96132" d="M135.965 82.5l36.383-30.024V178.88l-36.383 30.025V82.499z"/><path fill="#FFC3B0" d="M78.113 65.522l57.884 17.013L172.38 52.52l-55.373-13.455-38.894 26.457z"/><path stroke="#fff" stroke-linecap="round" stroke-linejoin="round" stroke-width="1.079" d="M143.632 116.425l23.562-18.215c.666-.514 1.203-.251 1.203.59v15.321a3.498 3.498 0 01-1.203 2.452l-23.562 18.215c-.664.514-1.203.251-1.203-.589v-15.32a3.502 3.502 0 011.203-2.454v0z"/><path fill="#3541D1" d="M144.645 117.928l1.694-1.346c.209-.161.368-.082.368.177v13.083a1.105 1.105 0 01-.368.761l-1.694 1.349c-.209.16-.365.081-.365-.178v-13.096c.018-.288.149-.558.365-.75z"/><path fill="#fff" d="M148.455 121.199l1.694-1.346c.208-.161.367-.082.369.177l.042 6.999a1.08 1.08 0 01-.365.761l-1.694 1.346c-.209.163-.368.083-.37-.176l-.042-7a1.094 1.094 0 01.366-.761z"/><path fill="#F7A501" d="M152.302 115.678l1.698-1.35c.209-.161.365.176.365.176l.161 9.312a1.102 1.102 0 01-.363.755l-1.7 1.35c-.209.161-.364.081-.364-.176l-.163-9.312c0-.257.366-.755.366-.755z"/><path fill="#3541D1" d="M156.157 115.91l1.694-1.346c.209-.161.368.178.368.178l.044 5.819a1.09 1.09 0 01-.366.759l-1.694 1.348c-.208.161-.367.082-.367-.177l-.044-5.82c0-.259.365-.761.365-.761z"/><path fill="#F7A501" d="M160.101 109.37l1.694-1.346c.209-.161.365.177.365.177l.044 9.478a1.1 1.1 0 01-.368.761l-1.693 1.346c-.209.161-.366.081-.366-.178l-.044-9.477c0-.259.368-.761.368-.761z"/><path fill="#fff" d="M164.146 102.779l1.694-1.346c.209-.161.368-.081.368.178v13.1a1.1 1.1 0 01-.368.761l-1.694 1.346c-.208.161-.365.081-.365-.178v-13.1a1.1 1.1 0 01.365-.761zM87.413 75.687l39.093 10.763a2.79 2.79 0 011.942 2.548v15.316c0 1.114-.871 1.776-1.942 1.479L87.413 95.03a2.789 2.789 0 01-1.94-2.548V77.167c0-1.114.871-1.777 1.94-1.48zm-.188 24.415l39.093 10.762a2.797 2.797 0 011.942 2.551v15.315c0 1.112-.869 1.775-1.942 1.48l-39.093-10.763a2.79 2.79 0 01-1.94-2.55v-15.316c0-1.112.869-1.774 1.94-1.479zm-.376 23.47l39.095 10.771a2.792 2.792 0 011.94 2.548v15.318c0 1.114-.869 1.774-1.94 1.48l-39.095-10.765a2.789 2.789 0 01-1.94-2.549V125.06c0-1.114.869-1.777 1.94-1.488zm.188 23.672l39.093 10.763a2.79 2.79 0 011.942 2.548v15.316c0 1.114-.869 1.777-1.942 1.48l-39.093-10.763a2.79 2.79 0 01-1.946-2.548v-15.316c0-1.114.875-1.775 1.946-1.48zm-.188 22.732l39.095 10.757a2.786 2.786 0 011.94 2.548v15.315c0 1.115-.869 1.777-1.94 1.482l-39.095-10.765a2.792 2.792 0 01-1.94-2.548V171.45c0-1.114.869-1.777 1.94-1.474z"/><path fill="#F96132" d="M91.885 88.973a2.22 2.22 0 01-1.872-2.896 2.221 2.221 0 014.311.985 2.193 2.193 0 01-2.439 1.91z"/><path fill="#F7A501" d="M90.6 112.953a2.222 2.222 0 111.346-4.136 2.22 2.22 0 011.094 2.227 2.186 2.186 0 01-1.587 1.845 2.188 2.188 0 01-.852.064z"/><path fill="#3541D1" d="M90.38 136.397a2.222 2.222 0 111.344-4.136 2.22 2.22 0 011.095 2.226 2.194 2.194 0 01-1.588 1.847 2.17 2.17 0 01-.852.063z"/><path fill="#F96132" d="M89.782 159.943a2.223 2.223 0 01.078-4.426 2.216 2.216 0 012.15 1.235c.196.396.268.842.21 1.28a2.192 2.192 0 01-2.438 1.911z"/><path fill="#F7A501" d="M89.55 182.781a2.217 2.217 0 01-1.9-1.595 2.225 2.225 0 011.972-2.831 2.218 2.218 0 012.153 1.235c.195.396.268.842.208 1.281a2.192 2.192 0 01-2.433 1.91z"/><path fill="#3541D1" d="M98.754 90.754a2.22 2.22 0 01-1.872-2.896 2.222 2.222 0 013.217-1.24 2.227 2.227 0 011.095 2.225 2.194 2.194 0 01-2.44 1.91z"/><path fill="#F96132" d="M97.472 114.729a2.215 2.215 0 01-1.889-1.604 2.224 2.224 0 011.982-2.82 2.22 2.22 0 012.355 2.516 2.196 2.196 0 01-1.594 1.847 2.18 2.18 0 01-.854.061z"/><path fill="#F7A501" d="M97.249 138.174a2.222 2.222 0 111.344-4.136 2.223 2.223 0 011.095 2.226 2.191 2.191 0 01-2.44 1.91zm-.598 23.554a2.219 2.219 0 01-1.9-1.596 2.225 2.225 0 01.763-2.362 2.218 2.218 0 013.57 2.047 2.19 2.19 0 01-2.433 1.911z"/><path fill="#F96132" d="M96.421 184.558a2.215 2.215 0 01-1.897-1.598 2.223 2.223 0 013.24-2.539 2.22 2.22 0 011.095 2.227 2.192 2.192 0 01-2.438 1.91zm6.644-94.505a1.9 1.9 0 012.333-1.319l19.51 5.435a1.892 1.892 0 01.996 2.986 1.903 1.903 0 01-1.263.715c-.247.03-.498.011-.738-.055l-19.507-5.435a1.896 1.896 0 01-1.331-2.327z"/><path fill="#3541D1" d="M101.781 114.035a1.895 1.895 0 012.333-1.319l19.509 5.421a1.887 1.887 0 011.143.894 1.896 1.896 0 01-.718 2.584 1.877 1.877 0 01-1.44.175l-19.507-5.424a1.897 1.897 0 01-1.32-2.331z"/><path fill="#F7A501" d="M101.559 137.478a1.896 1.896 0 012.329-1.319l19.51 5.435a1.904 1.904 0 011.142.894 1.904 1.904 0 01.176 1.441 1.898 1.898 0 01-2.333 1.319l-19.51-5.435a1.896 1.896 0 01-1.314-2.335z"/><path fill="#F96132" d="M100.964 161.032a1.892 1.892 0 012.333-1.319l19.51 5.434a1.9 1.9 0 011.315 2.321 1.896 1.896 0 01-2.332 1.319l-19.51-5.435a1.896 1.896 0 01-1.316-2.32z"/><path fill="#3541D1" d="M100.732 183.862a1.897 1.897 0 012.331-1.319l19.51 5.435a1.895 1.895 0 01-1.015 3.654l-19.508-5.435a1.904 1.904 0 01-1.143-.894 1.904 1.904 0 01-.175-1.441z"/></g><defs><clipPath id="clip0"><path fill="#fff" d="M0 0h94.444v170H0z" transform="translate(78 39)"/></clipPath></defs></svg>
